X: 18
T:Britain's
M:2/4s
L:1/8
Q:180
K:C
g2| e2 c2 dcBA| G6 g2| e2 c2 c2 d2| e2 c2 c2 de| f2 fg agfe| d2 g2 g2 a2 | ^f2 d2 g2 f2| g2 G2 G2:|
|: g2| g2 fe defg| a2 f2 f2 g2| c2 c2 A2 d2| B2 G2 G2 e2| AB c2 Bc d2| de f2 ef g2| agfe defg| e2 A2 A2:|

